!!!!SEGMENT: pl-sa--291-a-vii-51--001_lechleitner-ferdinand-simon--psalmodia-laudate-dominum.krn
!!!id: 17xx:426
!!!COM: Lechleitner, Ferdinand Simon
!!!COM-rism: pe30001903
!!!CDT:
!!!CNT:
!!!OTL: Psalmodia – Laudate Dominum
!!!PDT: 1731
!!!SMS-siglum: PL-SA
!!!SMS-shelfmark: 291/A VII 51
!!!NIFC-rismID: 1001077288
!!!system-decoration: [(s1,s2,s3,s4)][(s5,s6)]s7
**kern	**fba	**kern	**dynam	**kern	**kern	**text	**kern	**text	**kern	**text	**kern	**text
*part7	*part7	*part6	*part6	*part5	*part4	*part4	*part3	*part3	*part2	*part2	*part1	*part1
*staff7	*staff7	*staff6	*	*staff5	*staff4	*staff4	*staff3	*staff3	*staff2	*staff2	*staff1	*staff1
*I"Bafso Conti.	*	*I"Violino 2do	*	*I"Violino 1mo	*I"Baſso	*	*I"Tenore	*	*I"Alto	*	*I"Canto	*
*I'BC	*	*I'Vln. II	*	*I'Vno 1	*I'B	*	*I'T	*	*I'A	*	*I'C	*
*clefF4	*	*clefG2	*	*clefG2	*clefF4	*	*clefC4	*	*clefC3	*	*clefC1	*
*k[f#c#g#]	*	*k[f#c#g#]	*	*k[f#c#g#]	*k[f#c#g#]	*	*k[f#c#g#]	*	*k[f#c#g#]	*	*k[f#c#]	*
*M4/4	*	*M4/4	*	*M4/4	*M4/4	*	*M4/4	*	*M4/4	*	*M4/4	*
*met(c)	*	*met(c)	*	*met(c)	*met(c)	*	*met(c)	*	*met(c)	*	*met(c)	*
=1	=1	=1	=1	=1	=1	=1	=1	=1	=1	=1	=1	=1
*	*	*	*	*	*	*	*2\right	*	*	*	*2\right	*
!	!	!	!	!	!	!	!	!	!	!	!LO:TX:a:t=P:w źródle znaki przykluczowe f#c# dla głosu Canto (brakuje znaku g#); znak c# zapisany w dwóch oktawach:problem	!
!LO:TX:a:Bi:t=Largo	!	!	!	!	!	!	!	!	!LO:TX:a:Bi:t=Largo	!	!	!
!LO:TX:b:Bi:t=Laudate D(omin)um:rj	!	!	!	!	!LO:TX:b:Bi:t=Laudate D(omin)(um):rj	!	!	!	!LO:TX:b:Bi:t=Laudate D(omin)um:rj	!	!LO:TX:a:Bi:t=Laudate D(omin)um	!
!	!	!LO:TX:b:Bi:t=Laudate D(omin)um omnes	!	!LO:TX:b:Bi:t=Laudate Dominum omnes	!	!	!	!	!	!	!	!
8AA/L	.	8aa\L	.	8aa\L	00r	.	00r	.	00r	.	00r	.
8BB/	.	8aa\	.	8aa\	.	.	.	.	.	.	.	.
8C#/	.	8aa\	.	8aa\	.	.	.	.	.	.	.	.
8D/J	.	8aa\J	.	8aa\J	.	.	.	.	.	.	.	.
!LO:TX:a:t=P:mixed beam:problem	!	!	!	!	!	!	!	!	!	!	!	!
!LO:TX:a:Bi:t=ſolo	!	!	!	!	!	!	!	!	!	!	!	!
8E\L	.	8gg#\L	.	8gg#\L	.	.	.	.	.	.	.	.
8EE/J	.	16bb\L	.	16bb\L	.	.	.	.	.	.	.	.
.	.	16ff#\JJ	.	16ff#\JJ	.	.	.	.	.	.	.	.
4r	.	8.ee\L	.	8.eeT>\L	.	.	.	.	.	.	.	.
.	.	16dd\Jk	.	16dd\Jk	.	.	.	.	.	.	.	.
=2	=2	=2	=2	=2	=2	=2	=2	=2	=2	=2	=2	=2
8F#\L	n	8cc#\L	.	8cc#\L	.	.	.	.	.	.	.	.
8G#\	.	8ff#\	.	8ff#\	.	.	.	.	.	.	.	.
8A\	.	8ff#\	.	8ff#\	.	.	.	.	.	.	.	.
8B\J	.	8ff#\J	.	8ff#\J	.	.	.	.	.	.	.	.
!LO:TX:a:t=P:mixed beam:problem	!	!	!	!	!	!	!	!	!	!	!	!
8c#\L	.	8ee\L	.	8ee\L	.	.	.	.	.	.	.	.
8C#/J	.	8dd\	.	8dd\	.	.	.	.	.	.	.	.
4r	.	8cc#\	.	8cc#\	.	.	.	.	.	.	.	.
.	.	8b\J	.	8b\J	.	.	.	.	.	.	.	.
=3	=3	=3	=3	=3	=3	=3	=3	=3	=3	=3	=3	=3
!	!	!LO:TX:a:t=P:mixed beam:problem	!	!LO:TX:a:t=P:mixed beam:problem	!	!	!	!	!	!	!	!
8AA/L	.	8a/L	.	8a/L	.	.	.	.	.	.	.	.
8BB/	.	8ee\	.	8ee\	.	.	.	.	.	.	.	.
8C#/	.	8ee\	.	8ee\	.	.	.	.	.	.	.	.
8AA/J	.	8ee\J	.	8ee\J	.	.	.	.	.	.	.	.
8BB/L	.	8dd\L	.	8dd\L	.	.	.	.	.	.	.	.
8C#/	.	16cc#\L	.	16cc#\L	.	.	.	.	.	.	.	.
.	.	16ee\JJ	.	16ee\JJ	.	.	.	.	.	.	.	.
8D/	6	8.b/L	.	8.b/L	.	.	.	.	.	.	.	.
8D/J	5	.	.	.	.	.	.	.	.	.	.	.
.	.	16a/Jk	.	16a/Jk	.	.	.	.	.	.	.	.
=4	=4	=4	=4	=4	=4	=4	=4	=4	=4	=4	=4	=4
8E\L	.	8g#/L	.	8g#/L	.	.	.	.	.	.	.	.
8F#\	.	8e/J	.	8e/J	.	.	.	.	.	.	.	.
8G#\	.	16re	.	16re	.	.	.	.	.	.	.	.
.	.	16d/LL	.	16d/LL	.	.	.	.	.	.	.	.
8A\J	.	16a/	.	16a/	.	.	.	.	.	.	.	.
.	.	16g#/JJ	.	16g#/JJ	.	.	.	.	.	.	.	.
8D\L	.	16f#/LL	.	16f#/LL	.	.	.	.	.	.	.	.
.	.	16f#/	.	16f#/	.	.	.	.	.	.	.	.
8F#\	.	16b/	.	16b/	.	.	.	.	.	.	.	.
.	.	16a/JJ	.	16a/JJ	.	.	.	.	.	.	.	.
8G#\	6	16g#/LL	.	16g#/LL	.	.	.	.	.	.	.	.
.	.	16g#/	.	16g#/	.	.	.	.	.	.	.	.
8E\J	5	16cc#/	.	16cc#/	.	.	.	.	.	.	.	.
.	.	16b/JJ	.	16b/JJ	.	.	.	.	.	.	.	.
=5	=5	=5	=5	=5	=5	=5	=5	=5	=5	=5	=5	=5
8F#\L	.	16a/LL	.	16a\LL	00r	.	0r	.	00r	.	00r	.
.	.	16a/	.	16a\	.	.	.	.	.	.	.	.
8A\	.	16dd/	.	16dd\	.	.	.	.	.	.	.	.
.	.	16cc#/JJ	.	16cc#\JJ	.	.	.	.	.	.	.	.
!	!	!	!	!LO:LB:g=original	!	!	!	!	!	!	!	!
8B\	.	16b/LL	.	16b\LL	.	.	.	.	.	.	.	.
.	.	16b/	.	16b\	.	.	.	.	.	.	.	.
8G#\J	.	16ee/	.	16ee\	.	.	.	.	.	.	.	.
.	.	16dd/JJ	.	16dd\JJ	.	.	.	.	.	.	.	.
!LO:LB:g=original	!	!	!	!	!	!	!	!	!	!	!	!
!LO:TX:a:t=P:mixed beam:problem	!	!	!	!	!	!	!	!	!	!	!	!
8A\L	.	16cc#\LL	.	16cc#\LL	.	.	.	.	.	.	.	.
.	.	16ee\	.	16ee\	.	.	.	.	.	.	.	.
8C#/	.	16ff#\	.	16ff#\	.	.	.	.	.	.	.	.
.	.	16gg#\JJ	.	16gg#\JJ	.	.	.	.	.	.	.	.
!	!	!LO:LB:g=original	!	!	!	!	!	!	!	!	!	!
8AA/	.	16aa\LL	.	16aa\LL	.	.	.	.	.	.	.	.
.	.	16gg#\	.	16gg#\	.	.	.	.	.	.	.	.
8C#/J	.	16ff#\	.	16ff#\	.	.	.	.	.	.	.	.
.	.	16ee\JJ	.	16ee\JJ	.	.	.	.	.	.	.	.
=6	=6	=6	=6	=6	=6	=6	=6	=6	=6	=6	=6	=6
8D/L	.	16ff#\LL	.	16ff#\LL	.	.	.	.	.	.	.	.
.	.	16ff#\	.	16ff#\	.	.	.	.	.	.	.	.
!	!	!LO:SIC:s=16gg#:v	!	!	!	!	!	!	!	!	!	!
8D/	.	16aa\	.	16gg#\	.	.	.	.	.	.	.	.
.	.	16aa\JJ	.	16aa\JJ	.	.	.	.	.	.	.	.
8BB/	.	16bb\LL	.	16bb\LL	.	.	.	.	.	.	.	.
.	.	16aa\	.	16aa\	.	.	.	.	.	.	.	.
8D/J	.	16gg#\	.	16gg#\	.	.	.	.	.	.	.	.
.	.	16ff#\JJ	.	16ff#\JJ	.	.	.	.	.	.	.	.
!LO:TX:a:t=P:mixed beam:problem	!	!	!	!	!	!	!	!	!	!	!	!
8E\L	.	16gg#\LL	.	16gg#\LL	.	.	.	.	.	.	.	.
.	.	16ee\	.	16ee\	.	.	.	.	.	.	.	.
8D\	.	16aa\	.	16aa\	.	.	.	.	.	.	.	.
.	.	16cc#\JJ	.	16cc#\JJ	.	.	.	.	.	.	.	.
!	!	!LO:TX:a:t=P:mixed beam:problem	!	!LO:TX:a:t=P:mixed beam:problem	!	!	!	!	!	!	!	!
8E\	.	16b/LL	.	16b\LL	.	.	.	.	.	.	.	.
.	.	16aa\	.	16aa\	.	.	.	.	.	.	.	.
8EE/J	.	16e/	.	16e/	.	.	.	.	.	.	.	.
.	.	16gg#\JJ	.	16gg#\JJ	.	.	.	.	.	.	.	.
=7	=7	=7	=7	=7	=7	=7	=7-	=7-	=7	=7	=7	=7
8A\L	.	8a/L	.	8a/L	.	.	8r	.	.	.	.	.
!	!	!	!	!LO:SIC:s=8e:v	!	!	!	!	!	!	!	!
8B\	.	8e/J	.	8d/J	.	.	8e\	Lau-	.	.	.	.
8c#\	.	4A/	.	4A/	.	.	8e\	-da	.	.	.	.
8G#\J	.	.	.	.	.	.	8e\	te	.	.	.	.
8A\L	.	2rg	.	2rg	.	.	8c#\	Do-	.	.	.	.
8G#\	.	.	.	.	.	.	16c#\	-mi-	.	.	.	.
.	.	.	.	.	.	.	16B\	-n(um)	.	.	.	.
8A\	.	.	.	.	.	.	8c#\	om-	.	.	.	.
8F#\J	6\	.	.	.	.	.	8A/	-nes	.	.	.	.
=8	=8	=8	=8	=8	=8	=8	=8	=8	=8	=8	=8	=8
!	!	!	!	!	!	!	!LO:TX:a:t=P:mixed beam:problem	!	!	!	!	!
8E\L	.	16rdd	.	16r	.	.	8B\L	gen-	.	.	.	.
.	.	16ee\LL	.	16ee\LL	.	.	.	.	.	.	.	.
8C#\	6	16ff#\	.	16ff#\	.	.	8E/J	.	.	.	.	.
.	.	16gg#\JJ	.	16gg#\JJ	.	.	.	.	.	.	.	.
8AA\	.	16aa\LL	.	16aa\LL	.	.	4E/	-tes	.	.	.	.
.	.	16gg#\	.	16gg#\	.	.	.	.	.	.	.	.
8C#\J	.	16ff#\	.	16ff#\	.	.	.	.	.	.	.	.
.	.	16ee\JJ	.	16ee\JJ	.	.	.	.	.	.	.	.
8D\L	.	16ff#\LL	.	16ff#\LL	.	.	2r	.	.	.	.	.
.	.	16ff#\	.	16ff#\	.	.	.	.	.	.	.	.
8D\	.	16gg#\	.	16gg#\	.	.	.	.	.	.	.	.
.	.	16aa\JJ	.	16aa\JJ	.	.	.	.	.	.	.	.
8BB\	.	16bb\LL	.	16bb\LL	.	.	.	.	.	.	.	.
.	.	16aa\	.	16aa\	.	.	.	.	.	.	.	.
8D\J	.	16gg#\	.	16gg#\	.	.	.	.	.	.	.	.
.	.	16ff#\JJ	.	16ff#\JJ	.	.	.	.	.	.	.	.
=9	=9	=9	=9	=9	=9	=9	=9	=9	=9	=9	=9	=9
!	!	!	!	!	!	!	!	!	!	!	!LO:TX:a:t=P:w źródle nad longą pauza ćwierćnutowa; brak wpływu na rytm:problem	!
8E\L	.	8gg#\L	.	8gg#\L	00r	.	8rd	.	00r	.	00r	.
*	*	*	*	*	*	*	*	*ij	*	*	*	*
8F#\	.	8ee\J	.	8ee\J	.	.	8e\	Lau-	.	.	.	.
8G#\	.	4rff	.	4rff	.	.	8e\	-da	.	.	.	.
8E\J	.	.	.	.	.	.	8e\	te	.	.	.	.
8A\L	.	2rdd	.	2rdd	.	.	8c#\	Do-	.	.	.	.
8G#\	.	.	.	.	.	.	16c#\	-mi-	.	.	.	.
.	.	.	.	.	.	.	16B\	-n(um)	.	.	.	.
8A\	.	.	.	.	.	.	8c#\	om-	.	.	.	.
8F#\J	.	.	.	.	.	.	8A/	-nes	.	.	.	.
!	!	!	!	!LO:LB:g=original	!	!	!LO:LB:g=original	!	!	!	!	!
=10	=10	=10	=10	=10	=10	=10	=10	=10	=10	=10	=10	=10
!	!	!	!	!	!	!	!LO:TX:a:t=P:mixed beam:problem	!	!	!	!	!
8E\L	.	4r	.	4rg	.	.	(>8B/L	gen-	.	.	.	.
8F#\J	.	.	.	.	.	.	8E/J)	.	.	.	.	.
8G#\L	.	8r	.	8rg	.	.	8E/	-tes	.	.	.	.
*	*	*	*	*	*	*	*	*Xij	*	*	*	*
8E\J	.	8g#/	.	16g#/LL	.	.	(>16B\LL	lau-	.	.	.	.
.	.	.	.	16a/JJ	.	.	16c#\JJ)	.	.	.	.	.
8E\L	7_ 5_	8g#/L	.	8b/L	.	.	8d\	-da-	.	.	.	.
8E\	.	8g#/	.	16g#/L	.	.	(>16B\LL	-te	.	.	.	.
.	.	.	.	16a/JJ	.	.	16c#\JJ)	.	.	.	.	.
8E\	.	8g#/	.	8b/L	.	.	8d\	e-	.	.	.	.
8E\J	.	8g#/J	.	16g#/L	.	.	(>16B\LL	-um	.	.	.	.
.	.	.	.	16a/JJ	.	.	16c#\JJ)	.	.	.	.	.
!LO:LB:g=original	!	!	!	!	!	!	!	!	!	!	!	!
=11	=11	=11	=11	=11	=11	=11	=11	=11	=11	=11	=11	=11
8A\L	4 9	8e/L	.	16b\LL	.	.	8d\	om-	.	.	.	.
.	3 8	.	.	16aa\	.	.	.	.	.	.	.	.
8B\	.	8e/J	.	16ee\	.	.	8c#\	-nes	.	.	.	.
.	.	.	.	16cc#\JJ	.	.	.	.	.	.	.	.
8c#\	.	8r	.	8a/L	.	.	8rB	.	.	.	.	.
*	*	*	*	*	*	*	*	*ij	*	*	*	*
8A\J	.	8e/	.	16e/L	.	.	(>16c#\LL	lau-	.	.	.	.
.	.	.	.	16f#/JJ	.	.	16d\JJ)	.	.	.	.	.
!	!	!LO:LB:g=original	!	!	!	!	!	!	!	!	!	!
8AA/L	7_ 5_	8e/L	.	8gn/L	.	.	8e\	-da-	.	.	.	.
8AA/	.	8e/	.	16e/L	.	.	(>16c#\LL	-te	.	.	.	.
.	.	.	.	16f#/JJ	.	.	16d\JJ)	.	.	.	.	.
8AA/	.	8e/	.	8gn/L	.	.	8e\	e-	.	.	.	.
8AA/J	.	8e/J	.	16e/L	.	.	(>16c#\LL	-um	.	.	.	.
.	.	.	.	16f#/JJ	.	.	16d\JJ)	.	.	.	.	.
=12	=12	=12	=12	=12	=12	=12	=12	=12	=12	=12	=12	=12
8D\L	-4 9	8e/L	.	16g-/LL	.	.	8e\	om-	.	.	.	.
.	3 8	.	.	16dd/	.	.	.	.	.	.	.	.
8E\	.	8e/J	.	16a/	.	.	8d\	-nes	.	.	.	.
.	.	.	.	16f#/JJ	.	.	.	.	.	.	.	.
*	*	*	*	*	*	*	*	*Xij	*	*	*	*
!	!	!	!	!LO:TX:a:t=P:w źródle część najprawdopodoniej poprawiana przez skryptora:problem	!	!	!	!	!	!	!	!
8F#\	6 x	4r	.	4d/	.	.	8rd	.	.	.	.	.
8G#\J	5 x	.	.	.	.	.	16e\	om-	.	.	.	.
.	.	.	.	.	.	.	16d\	-nes	.	.	.	.
*	*	*	*	*	*	*	*	*ij	*	*	*	*
!LO:TX:a:t=P:mixed beam:problem	!	!	!	!	!	!	!	!	!	!	!	!
8A\L	.	2rg	.	2rf	.	.	8c#\	om-	.	.	.	.
8D\	.	.	.	.	.	.	8B\	-nes	.	.	.	.
*	*	*	*	*	*	*	*	*Xij	*	*	*	*
!	!	!	!	!	!	!	!LO:LB:g=original	!	!	!	!	!
8E\	.	.	.	.	.	.	8.B\	po-	.	.	.	.
8EE/J	.	.	.	.	.	.	.	.	.	.	.	.
.	.	.	.	.	.	.	16A/	-pu-	.	.	.	.
=13	=13	=13	=13	=13	=13	=13	=13	=13	=13	=13	=13	=13
!	!	!	!LO:DY:b:t=%sorte	!	!	!	!	!	!	!	!	!
8AA/L	.	8aa\L	f	8aa\L	00r	.	4A/	-li	00r	.	00r	.
8BB/	.	8aa\	.	8aa\	.	.	.	.	.	.	.	.
8C#/	.	8aa\	.	8aa\	.	.	4r	.	.	.	.	.
8D/J	.	8aa\J	.	8aa\J	.	.	.	.	.	.	.	.
!LO:TX:a:t=P:mixed beam:problem	!	!	!	!	!	!	!	!	!	!	!	!
8E\L	.	8gg#\L	.	8gg#\L	.	.	2r	.	.	.	.	.
8EE/J	.	16bb\L	.	16bb\L	.	.	.	.	.	.	.	.
.	.	16ff#\JJ	.	16ff#\JJ	.	.	.	.	.	.	.	.
4r	.	8.eeT>\L	.	8.ee\L	.	.	.	.	.	.	.	.
.	.	16dd\Jk	.	16dd\Jk	.	.	.	.	.	.	.	.
=14	=14	=14	=14	=14	=14	=14	=14-	=14=14	=14	=14	=14	=14
8F#\L	.	8cc#\L	.	8cc#\L	.	.	00r	.	.	.	.	.
8G#\	.	8ff#\	.	8ff#\	.	.	.	.	.	.	.	.
8A\	.	8ff#\	.	8ff#\	.	.	.	.	.	.	.	.
8B\J	.	8ff#\J	.	8ff#\J	.	.	.	.	.	.	.	.
!LO:TX:a:t=P:mixed beam:problem	!	!	!	!	!	!	!	!	!	!	!	!
8c#\L	.	8ee\L	.	8ee\L	.	.	.	.	.	.	.	.
8C#/J	.	8dd\	.	8dd\	.	.	.	.	.	.	.	.
4r	.	8cc#\	.	8cc#\	.	.	.	.	.	.	.	.
.	.	8b\J	.	8b\J	.	.	.	.	.	.	.	.
!	!	!	!	!LO:LB:g=original	!	!	!	!	!	!	!	!
=15	=15	=15	=15	=15	=15	=15	=15	=15	=15	=15	=15	=15
!	!	!LO:TX:a:t=P:mixed beam:problem	!	!LO:TX:a:t=P:mixed beam:problem	!	!	!	!	!	!	!	!
8AA/L	.	8a/L	.	8a/L	.	.	.	.	.	.	.	.
8BB/	.	8ee\	.	8ee\	.	.	.	.	.	.	.	.
8C#/	.	8ee\	.	8ee\	.	.	.	.	.	.	.	.
8AA/J	.	8ee\J	.	8ee\J	.	.	.	.	.	.	.	.
8BB/L	.	8dd\L	.	8dd\L	.	.	.	.	.	.	.	.
8C#/	.	16cc#\L	.	16cc#\L	.	.	.	.	.	.	.	.
.	.	16ee\JJ	.	16ee\JJ	.	.	.	.	.	.	.	.
8D/	6	8.b/L	.	8.b\L	.	.	.	.	.	.	.	.
8D/J	5	.	.	.	.	.	.	.	.	.	.	.
.	.	16aT>/Jk	.	16a\Jk	.	.	.	.	.	.	.	.
=16	=16	=16	=16	=16	=16	=16	=16	=16	=16	=16	=16	=16
!	!	!	!	!LO:N:vis=8	!	!	!	!	!	!	!	!
8E\L	.	8g#/L	.	16g#/L	.	.	.	.	.	.	.	.
!	!	!	!	!LO:N:vis=8	!	!	!	!	!	!	!	!
.	.	.	.	16e/Jk	.	.	.	.	.	.	.	.
8F#\J	.	8e/J	.	8rg	.	.	.	.	.	.	.	.
!LO:LB:g=original	!	!	!	!	!	!	!	!	!	!	!	!
!	!	!LO:N:vis=16	!	!	!	!	!	!	!	!	!	!
8G#\L	.	4re	.	8e/L	.	.	.	.	.	.	.	.
8A\J	.	.	.	16a/L	.	.	.	.	.	.	.	.
.	.	.	.	16g#/JJ	.	.	.	.	.	.	.	.
8D\L	.	16f#/LL	.	16f#/LL	.	.	.	.	.	.	.	.
.	.	16f#/	.	16f#/	.	.	.	.	.	.	.	.
8F#\	.	16b/	.	16b/	.	.	.	.	.	.	.	.
.	.	16a/JJ	.	16a/JJ	.	.	.	.	.	.	.	.
8G#\	6	16g#/LL	.	16g#/LL	.	.	.	.	.	.	.	.
.	.	16g#/	.	16g#/	.	.	.	.	.	.	.	.
8E\J	5	16cc#/	.	16cc#/	.	.	.	.	.	.	.	.
.	.	16b/JJ	.	16b/JJ	.	.	.	.	.	.	.	.
=17	=17	=17	=17	=17	=17	=17	=17	=17	=17	=17	=17	=17
8F#\L	.	16a\LL	.	16a\LL	0r	.	.	.	0r	.	0r	.
.	.	16a\	.	16a\	.	.	.	.	.	.	.	.
8A\	.	16dd\	.	16dd\	.	.	.	.	.	.	.	.
.	.	16cc#\JJ	.	16cc#\JJ	.	.	.	.	.	.	.	.
!	!	!LO:LB:g=original	!	!	!	!	!	!	!	!	!	!
8B\	.	16b\LL	.	16b\LL	.	.	.	.	.	.	.	.
.	.	16b\	.	16b\	.	.	.	.	.	.	.	.
8G#\J	.	16ee\	.	16ee\	.	.	.	.	.	.	.	.
.	.	16dd\JJ	.	16dd\JJ	.	.	.	.	.	.	.	.
8A\L	.	16cc#\LL	.	16cc#\LL	.	.	.	.	.	.	.	.
.	.	16ee\	.	16ee\	.	.	.	.	.	.	.	.
8C#\J	6	16ff#\	.	16ff#\	.	.	.	.	.	.	.	.
.	.	16gg#\JJ	.	16gg#\JJ	.	.	.	.	.	.	.	.
8AA/L	.	16aa\LL	.	16aa\LL	.	.	.	.	.	.	.	.
.	.	16gg#\	.	16gg#\	.	.	.	.	.	.	.	.
8C#/J	.	16ff#\	.	16ff#\	.	.	.	.	.	.	.	.
.	.	16ee\JJ	.	16ee\JJ	.	.	.	.	.	.	.	.
=18	=18	=18	=18	=18	=18	=18	=18	=18	=18	=18	=18	=18
8D/L	.	16ff#\LL	.	16ff#\LL	.	.	1r	.	.	.	.	.
.	.	16ff#\	.	16ff#\	.	.	.	.	.	.	.	.
8D/	.	16gg#\	.	16gg#\	.	.	.	.	.	.	.	.
.	.	16aa\JJ	.	16aa\JJ	.	.	.	.	.	.	.	.
8BB/	.	16bb\LL	.	16bb\LL	.	.	.	.	.	.	.	.
.	.	16aa\	.	16aa\	.	.	.	.	.	.	.	.
8D/J	.	16gg#\	.	16gg#\	.	.	.	.	.	.	.	.
.	.	16ff#\JJ	.	16ff#\JJ	.	.	.	.	.	.	.	.
!LO:TX:a:t=P:mixed beam:problem	!	!	!	!	!	!	!	!	!	!	!	!
8E\L	.	16gg#\LL	.	16gg#\LL	.	.	.	.	.	.	.	.
.	.	16ee\	.	16ee\	.	.	.	.	.	.	.	.
8D\	.	16aa\	.	16aa\	.	.	.	.	.	.	.	.
.	.	16cc#\JJ	.	16cc#\JJ	.	.	.	.	.	.	.	.
!	!	!LO:TX:a:t=P:mixed beam:problem	!	!LO:TX:a:t=P:mixed beam:problem	!	!	!	!	!	!	!	!
8E\	.	16b/LL	.	16b/LL	.	.	.	.	.	.	.	.
.	.	16aa\	.	16aa\	.	.	.	.	.	.	.	.
!	!	!LO:SIC:s=16e:v	!	!	!	!	!	!	!	!	!	!
8EE/J	.	16d/	.	16e/	.	.	.	.	.	.	.	.
.	.	16gg#\JJ	.	16gg#\JJ	.	.	.	.	.	.	.	.
!	!	!	!	!LO:LB:g=original	!	!	!	!	!	!	!	!
=19	=19	=19	=19	=19	=19-	=19-	=19-	=19-	=19-	=19-	=19-	=19-
!LO:TX:a:t=P:mixed beam:problem	!	!LO:TX:a:t=P:mixed beam:problem	!	!LO:TX:a:t=P:mixed beam:problem	!	!	!	!	!	!	!	!
8AA/L	.	16a/LL	.	16a/LL	4r	.	4r	.	4r	.	4r	.
.	.	16aa\	.	16aa\	.	.	.	.	.	.	.	.
!LO:TX:a:Bi:t=Tut	!	!	!	!	!	!	!	!	!	!	!	!
8A\	.	16aa\	.	16aa\	.	.	.	.	.	.	.	.
.	.	16aa\JJ	.	16aa\JJ	.	.	.	.	.	.	.	.
8A\	.	16aa\LL	.	16aa\LL	8A\	Quo-	8c#\	Quo-	8e\	Quo-	8cc#\	Quo-
.	.	16aa\	.	16aa\	.	.	.	.	.	.	.	.
8A\J	.	16aa\	.	16aa\	16A\	-ni-	16c#\	-ni-	16e\	-ni-	16cc#\	-ni-
.	.	16aa\JJ	.	16aa\JJ	16A\	-am	16c#\	-am	16e\	-am	16dd\	-am
8E\L	.	16gg#\LL	.	16gg#\LL	8E\	Con-	8B\	Con-	8e\	Con-	8ee\	Con-
.	.	16bb\	.	16bb\	.	.	.	.	.	.	.	.
!	!	!	!	!	!	!	!LO:TX:a:t=P:w źródle poprawki w tekście naniesione przez skryptora:problem	!	!	!	!	!
8F#\	.	16bb\	.	16bb\	8F#\	-fir-	8A/	-fir-	8e\	-fir-	8ee\	-fir-
.	.	16bb\JJ	.	16bb\JJ	.	.	.	.	.	.	.	.
8G#\	.	16ee\LL	.	16ee\LL	8G#\	-ma-	8B\	-ma-	8.e\	-ma-	(>16ee\LL	-ma-
.	.	16gg#\	.	16gg#\	.	.	.	.	.	.	16dd\JJ)	.
8E\J	.	16gg#\	.	16gg#\	8E/	-ta	8e\	-ta	.	.	(>16cc#\LL	-ta
.	.	16gg#\JJ	.	16gg#\JJ	.	.	.	.	16e\	-ta	16b\JJ)	.
=20	=20	=20	=20	=20	=20	=20	=20	=20	=20	=20	=20	=20
8A\L	.	16aa\LL	.	16aa\LL	4A\	eſt	8c#\	eſt	8e,<\	eſt	8cc#,<\	eſt
.	.	16aa\	.	16aa\	.	.	.	.	.	.	.	.
*	*	*	*	*	*	*	*	*ij	*	*ij	*	*
8F#\	n	16aa\	.	16aa\	.	.	4A\	Con-	4f#\	Quo-	4cc#\	Con-
.	.	16aa\JJ	.	16aa\JJ	.	.	.	.	.	.	.	.
8F#\	.	16aa\LL	.	16aa\LL	8F#\	Con-	.	.	.	.	.	.
.	.	16aa\	.	16aa\	.	.	.	.	.	.	.	.
8F#\J	.	16aa\	.	16aa\	8F#\	-fir-	8A/	-fir-	16f#\	-ni-	8ff#\	-fir
.	.	16aa\JJ	.	16aa\JJ	.	.	.	.	16f#\	-am	.	.
4C#/	#	16gg#\LL	.	16gg#\LL	16c#\LL	-ma-	4.c#\	-ma-	8g#\	Con-	16ee#X\LL	ma-
.	.	16gg#\	.	16gg#\	16B\	.	.	.	.	.	16dd#X\	.
.	.	16gg#\	.	16gg#\	16c#\	.	.	.	8g#\	-fir-	16ee#X\	.
.	.	16gg#\JJ	.	16gg#\JJ	16d\JJ	.	.	.	.	.	16ff#\JJ	.
!	!	!	!	!	!LO:TX:a:t=P:mixed beam:problem	!	!	!	!	!	!	!
8r	.	16gg#\LL	.	16gg#\LL	16c#\LL	.	.	.	8.g#\	-ma-	8ee#X\L	-ta
.	.	16gg#\	.	16gg#\	16B\	.	.	.	.	.	.	.
8C#/	#	16gg#\	.	16gg#\	16c#\	-ta	8c#\	-ta	.	.	16dd#X\L	.
.	.	16gg#\JJ	.	16gg#\JJ	16C#/JJ	.	.	.	16g#\	-ta	16dd#\JJ	.
!	!	!LO:LB:g=original	!	!	!	!	!	!	!	!	!	!
=21	=21	=21	=21	=21	=21	=21	=21	=21	=21	=21	=21	=21
8F#\L	n	16ff#\LL	.	16ff#\LL	8F#\	eſt	8c#\	eſt	8a\	eſt	8ff#\	eſt
.	.	16ff#\	.	16ff#\	.	.	.	.	.	.	.	.
*	*	*	*	*	*	*	*	*Xij	*	*Xij	*	*
!	!	!	!	!	!	!	!	!	!LO:LB:g=original	!	!LO:LB:g=original	!
*	*	*	*	*	*	*	*	*	*	*	*k[f#c#g#]	*
!	!	!	!	!	!	!	!	!	!	!	!LO:TX:a:t=P:w źródle znaki przykluczowe zmieniają sie na f#c#g#; znak c# zapisany w dwóch oktawach:problem	!
8G#\	6	16ff#\	.	16ff#\	8G#\	ſu-	8B\	ſu-	8g#\	ſu-	8ee#X\	ſu-
.	.	16ff#\JJ	.	16ff#\JJ	.	.	.	.	.	.	.	.
8A\	6	16ff#\LL	.	16ff#\LL	8A\	-per	8c#\	-per	8f#\	-per	8ff#\	-per
.	.	16ff#\	.	16ff#\	.	.	.	.	.	.	.	.
!	!	!	!	!	!	!	!LO:LB:g=original	!	!	!	!	!
8F#\J	.	16ff#\	.	16ff#\	16F#\	nos	16c#\	nos	16a\	nos	16cc#\	nos
!LO:LB:g=original	!	!	!	!	!	!	!	!	!	!	!	!
*	*	*	*	*	*	*	*	*ij	*	*	*	*
.	.	16ff#\JJ	.	16ff#\JJ	16F#\	Mi-	16f#\	ſu-	16a\	ſu-	16cc#\	ſu-
!	!	!	!	!	!LO:LB:g=original	!	!	!	!	!	!	!
8B\L	.	16ff#\LL	.	16ff#\LL	8B\	-ſe-	8d\	-per	8f#\	-per	8dd\	-per
.	.	16ff#\	.	16ff#\	.	.	.	.	.	.	.	.
8A\	6	16ff#\	.	16ff#\	16A\	-ri-	16c#,<\	nos	16f#\	nos	16ff#\	nos
*	*	*	*	*	*	*	*	*Xij	*	*	*	*
.	.	16ff#\JJ	.	16ff#\JJ	16A\	-cor	16c#\	mi-	16f#\	mi-	16ff#\	mi-
8G#\	6	16ee#X\LL	.	16ee#X\LL	8G#\	ſe-	8B\	-ſe-	8g#\	-ſe-	8ee#X\	-ſe-
.	.	16ff#\	.	16ff#\	.	.	.	.	.	.	.	.
8F#\J	n	16ff#\	.	16ff#\	8F#\	-ri-	8A/	-ri-	8a\	-ri-	8ff#\	-ri-
.	.	16ff#\JJ	.	16ff#\JJ	.	.	.	.	.	.	.	.
=22	=22	=22	=22	=22	=22	=22	=22	=22	=22	=22	=22	=22
8E#X\L	.	16gg#\LL	.	16gg#\LL	8E#X\	-cor-	8c#\	-cor-	8g#\	-cor-	8cc#\	-cor-
!	!	!LO:SIC:s=16aa:v	!	!	!	!	!	!	!	!	!	!
.	.	16gg#\	.	16aa\	.	.	.	.	.	.	.	.
!	!	!LO:SIC:s=16aa:v	!	!	!	!	!	!	!	!	!	!
8F#\	.	16gg#\	.	16aa\	16F#\	-di-	16f#\	-di-	16f#\	-di-	16cc#\	-di-
!	!	!LO:SIC:s=16aa:v	!	!	!	!	!	!	!	!	!	!
.	.	16gg#\JJ	.	16aa\JJ	16F#\	-a	16f#\	-a	16f#\	-a	16cc#\	-a
!	!	!	!	!	!LO:TX:a:t=P:mixed beam:problem	!	!	!	!	!	!	!
8C#\	x 4	16gg#\LL	.	16gg#\LL	8c#\L	e-	(>8f#\L	e-	4g#\	e-	4cc#\	e-
.	.	16gg#\	.	16gg#\	.	.	.	.	.	.	.	.
8C#\J	# 3	16gg#\	.	16gg#\	8C#/J	.	8e#X\J)	.	.	.	.	.
.	.	16gg#\JJ	.	16gg#\JJ	.	.	.	.	.	.	.	.
!LO:TX:a:t=P:mixed beam:problem	!	!	!	!	!	!	!	!	!	!	!	!
8F#\L	n	16ff#\LL	.	16ff#\LL	8F#,<\	-jus	8f#,<\	-jus	8a,<\	-jus	8cc#\	-jus
.	.	16ff#\	.	16ff#\	.	.	.	.	.	.	.	.
8F#\	.	16ff#\	.	16ff#\	8F#\	et	8c#\	et	8a\	et	8ff#\	et
.	.	16ff#\JJ	.	16ff#\JJ	.	.	.	.	.	.	.	.
!	!	!	!	!LO:LB:g=original	!	!	!	!	!	!	!	!
8FF#/	.	16ff#\LL	.	16ff#\LL	8F#\	Ve-	8c#\	Ve-	8a\	Ve-	8ff#\	ve-
.	.	16ff#\	.	16ff#\	.	.	.	.	.	.	.	.
8F#\J	.	16ff#\	.	16ff#\	16F#\	-ri-	16c#\	-ri-	16a\	-ri-	16ff#\	-ri-
.	.	16ff#\JJ	.	16ff#\JJ	16F#\	-tas	16c#\	-tas	16a\	-tas	16ff#\	-tas
!	!	!	!	!	!	!	!	!	!	!	!LO:LB:g=original	!
=23	=23	=23	=23	=23	=23	=23	=23	=23	=23	=23	=23	=23
!LO:TX:a:t=P:mixed beam:problem	!	!LO:TX:a:t=P:mixed beam:problem	!	!	!	!	!	!	!	!	!	!
!	!	!	!	!	!	!	!	!	!	!	!LO:TX:a:t=P:w źródle znaki przykluczowe od tego systemu f#c#g#; znak c# zapisany w jednej oktawie:problem	!
8c#\L	#	16ee#X\LL	.	16ee#X\LL	8c#\	Do-	8c#\	Do-	8g#\	Do-	8ee\	Do-
.	.	16c#/	.	16ee#\	.	.	.	.	.	.	.	.
8C#/	.	16c#/	.	16cc#\	16c#\	-mi-	16c#\	-mi-	16g#\	-mi-	16ee\	-mi-
.	.	16c#/JJ	.	16cc#\JJ	16c#\	-ni	16c#\	-ni	16g#\	-ni	16ee\	-ni
8E#X/	.	16c#/LL	.	16cc#\LL	8C#/	ma-	8c#\	ma-	8c#/	ma-	8cc#\	ma-
.	.	16c#/	.	16cc#\	.	.	.	.	.	.	.	.
8C#/J	.	16c#/	.	16cc#\	8C#/	-net	8c#\	-net	8c#/	-net	8cc#\	-net
.	.	16c#/JJ	.	16cc#\JJ	.	.	.	.	.	.	.	.
!	!	!	!	!	!	!	!	!	!LO:LB:g=original	!	!	!
*	*	*	*	*	*	*ij	*	*	*	*	*	*
!	!	!	!	!	!	!	!	!	!	!	!LO:TX:a:B:t=t	!
8F#\L	n	16c#/LL	.	16cc#\LL	2C#/	ma-	2c#\	Ma-	2c#/	ma-	2cc#\	ma-
.	.	16c#/	.	16cc#\	.	.	.	.	.	.	.	.
8G#\	.	16c#/	.	16cc#\	.	.	.	.	.	.	.	.
.	.	16c#/JJ	.	16cc#\JJ	.	.	.	.	.	.	.	.
8A\	.	16c#/LL	.	16cc#\LL	.	.	.	.	.	.	.	.
.	.	16c#/	.	16cc#\	.	.	.	.	.	.	.	.
8F#\J	.	16c#/	.	16cc#\	.	.	.	.	.	.	.	.
.	.	16c#/JJ	.	16cc#\JJ	.	.	.	.	.	.	.	.
!	!	!	!	!	!	!	!LO:LB:g=original	!	!	!	!	!
=24	=24	=24	=24	=24	=24	=24	=24	=24	=24	=24	=24	=24
!LO:TX:a:t=P:mixed beam:problem	!	!LO:TX:a:t=P:mixed beam:problem	!	!	!	!	!	!	!	!	!	!
8C#/L	#	16c#/LL	.	16cc#\LL	4C#,</	-net	4c#,<\	-net	4c#,</	-net	4cc#,<\	-net
!	!	!LO:SIC:s=16ee#:v	!	!	!	!	!	!	!	!	!	!
!	!	!	!	!LO:TX:a:t=P:w źródle prawdopodobnie mały krzyżyk również przy nucie 16ee#:problem	!	!	!	!	!	!	!	!
.	.	16ee\	.	16ee#Xi\	.	.	.	.	.	.	.	.
!	!	!LO:SIC:s=16ee#:v	!	!	!	!	!	!	!	!	!	!
8c#\	.	16ee\	.	16ee#\	.	.	.	.	.	.	.	.
!	!	!LO:SIC:s=16ee#:v	!	!	!	!	!	!	!	!	!	!
.	.	16ee\JJ	.	16ee#\JJ	.	.	.	.	.	.	.	.
*	*	*	*	*	*	*Xij	*	*	*	*	*	*
*	*	*	*	*	*	*ij	*	*	*	*ij	*	*
8A\	.	16ff#\LL	.	16ff#\LL	8A\	ma-	8c#\	ma-	8c#/	ma-	8ff#\	ma-
.	.	16ff#\	.	16ff#\	.	.	.	.	.	.	.	.
8F#\J	.	16ff#\	.	16ff#\	8F#\	-net	8c#\	-net	8a\	-net	8ff#\	-net
.	.	16ff#\JJ	.	16ff#\JJ	.	.	.	.	.	.	.	.
*	*	*	*	*	*	*Xij	*	*	*	*Xij	*	*
!	!	!	!	!	!LO:LB:g=original	!	!	!	!	!	!	!
!LO:TX:a:t=P:mixed beam:problem	!	!	!	!	!	!	!	!	!	!	!	!
8B\L	6_ 5_	16gg#\LL	.	16gg#\LL	8B\	in	8d\	in	8g#\	in	8ff#\	in
.	.	16gg#\	.	16gg#\	.	.	.	.	.	.	.	.
8G#\	.	16gg#\	.	16gg#\	8G#\	ae-	8d\	ae-	8g#\	ae-	(>16gg#\LL	ae-
.	.	16gg#\JJ	.	16gg#\JJ	.	.	.	.	.	.	16ff#\JJ)	.
!	!	!	!	!	!LO:TX:a:t=P:mixed beam:problem	!	!	!	!	!	!	!
8c#\	.	16gg#\LL	.	16gg#\LL	8c#\L	-ter-	4c#\	-ter-	4g#\	-ter-	(>8ff#\L	-ter-
.	.	16gg#\	.	16gg#\	.	.	.	.	.	.	.	.
8C#/J	X 4	16gg#\	.	16gg#\	8C#/J	.	.	.	.	.	8ee#X\J)	.
.	x 3	16gg#\JJ	.	16gg#\JJ	.	.	.	.	.	.	.	.
!	!	!LO:LB:g=original	!	!	!	!	!	!	!	!	!	!
=25	=25	=25	=25	=25	=25	=25	=25	=25	=25	=25	=25	=25
8F#\L	# n	16ff#\LL	.	16gg#\LL	4F#,<\	-num	4c#\	-n(um)	4a\	-num	4ff#,<\	-num
.	.	16aa\	.	16aa\	.	.	.	.	.	.	.	.
8F#\	.	16aa\	.	16aa\	.	.	.	.	.	.	.	.
.	.	16aa\JJ	.	16aa\JJ	.	.	.	.	.	.	.	.
8G#\	.	16bb\LL	.	16bb\LL	8G#\	glo-	8B\	glo-	4rf	.	8ee\	Glo-
.	.	16bb\	.	16bb\	.	.	.	.	.	.	.	.
8G#\J	6 x	16bb\	.	16bb\	16G#\	-ri-	16B\	-ri-	.	.	16ee\	-ri-
.	.	16bb\JJ	.	16bb\JJ	16G#\	-a	16B\	-a	.	.	16ee\	-a
*	*	*	*	*	*	*ij	*	*	*	*	*	*
!LO:TX:a:t=P:mixed beam:problem	!	!	!	!	!	!	!	!	!	!	!	!
8A\L	.	16aa\LL	.	16aa\LL	8A\	glo-	16c#\LL	Pa-	2rf	.	16ee\LL	Pa-
.	.	16aa\	.	16aa\	.	.	16B\	.	.	.	16dd\	.
8AA/	.	16aa\	.	16aa\	16AA/	-ri-	16c#\	.	.	.	16ee\	.
.	.	16aa\JJ	.	16aa\JJ	16AA/	-a	16d\JJ	.	.	.	16ff#\JJ	.
8C#/	.	16aa\LL	.	16aa\LL	8C#/	glo-	16c#\LL	.	.	.	16ee\LL	.
.	.	16aa\	.	16aa\	.	.	16B\	.	.	.	16dd\	.
8E/J	.	16gg#\	.	16gg#X\	16E\	-ri-	(>16A\	.	.	.	16cc#\	.
.	.	16gg#\JJ	.	16gg#\JJ	16E\	-a	16G#\JJ	.	.	.	16b\JJ	.
*	*	*	*	*	*	*Xij	*	*	*	*	*	*
=26	=26	=26	=26	=26	=26	=26	=26	=26	=26	=26	=26	=26
!LO:TX:a:t=P:mixed beam:problem	!	!	!	!	!	!	!	!	!	!	!	!
8AA/L	.	16ee\LL	.	16ee\LL	8A\	Pa-	8A/)	.	4rf	.	8cc#\	.
.	.	16aa\	.	16aa\	.	.	.	.	.	.	.	.
8A\	.	16aa\	.	16aa\	8A\	-tri	8A/	-tri	.	.	8a\	-tri
.	.	16aa\JJ	.	16aa\JJ	.	.	.	.	.	.	.	.
!	!	!	!	!	!	!	!	!	!	!	!LO:LB:g=original	!
8G#\	.	16bb\LL	.	16bb\LL	8G#\	glo-	4r	.	8g#\	Glo-	8ee\	glo-
.	.	16bb\	.	16bb\	.	.	.	.	.	.	.	.
8E\J	.	16bb\	.	16bb\	16E\	-ri-	.	.	16g#\	-ri-	16ee\	-ri-
.	.	16bb\JJ	.	16bb\JJ	16E\	-a	.	.	16g#\	-a	16ee\	-a
!LO:LB:g=original	!	!	!	!	!	!	!	!	!	!	!	!
*	*	*	*	*	*	*ij	*	*	*	*ij	*	*
8A\L	.	16aa\LL	.	16aa\LL	8A\	glo-	2r	.	8e\	glo-	8ee\	glo-
.	.	16bb\	.	16bb\	.	.	.	.	.	.	.	.
8G#\	.	16bb\	.	16bb\	16G#\	-ri-	.	.	16g#\	-ri-	16ee\	-ri-
.	.	16bb\JJ	.	16bb\JJ	16G#\	-a	.	.	16g#\	-a	16ee\	-a
!	!	!	!	!LO:LB:g=original	!	!	!	!	!	!	!	!
*	*	*	*	*	*	*	*	*	*	*	*	*ij
8F#\	7	16aa\LL	.	16aa\LL	8F#\	glo-	.	.	8a\	glo-	8ee\	glo-
.	.	16ff#\	.	16ff#\	.	.	.	.	.	.	.	.
8B\J	#	16ff#\	.	16ff#\	16B\	-ri-	.	.	16a\	-ri-	16dd#X\	-ri-
.	.	16ff#\JJ	.	16ff#\JJ	16B\	-a	.	.	16a\	-a	16dd#\	-a
*	*	*	*	*	*	*Xij	*	*	*	*Xij	*	*Xij
!	!	!	!	!	!LO:LB:g=original	!	!	!	!	!	!	!
=27	=27	=27	=27	=27	=27	=27	=27	=27	=27	=27	=27	=27
!	!	!LO:TX:a:t=P:mixed beam:problem	!	!	!	!	!	!	!	!	!	!
8E\L	.	16gg#\LL	.	16gg#\LL	8E\	Fi-	4rB	.	8g#\	Fi-	8ee\	glo-
.	.	16b/	.	16b\	.	.	.	.	.	.	.	.
8E\	.	16b/	.	16b\	16E\	-li-	.	.	16g#\	-li-	16ee\	-ri-
.	.	16b/JJ	.	16b\JJ	16E\	-o	.	.	16g#\	-o	16ee\	-a
8G#\	.	16b/LL	.	16b/LL	8E\	glo-	8e\	Glo-	8g#\	glo-	4rdd	.
.	.	16b/	.	16b/	.	.	.	.	.	.	.	.
!	!	!	!	!	!	!	!	!	!LO:LB:g=original	!	!	!
8E\J	.	16b/	.	16b/	16E\	-ri-	16e\	-ri-	16g#\	-ri-	.	.
.	.	16b/JJ	.	16b/JJ	16E\	-a	16e\	-a	16g#,<\	-a	.	.
!LO:TX:a:t=P:mixed beam:problem	!	!	!	!	!	!	!	!	!	!	!	!
8B\L	.	16b/LL	.	16b/LL	(>16B\LL	et	(>16d#X\LL	et	8f#\	et	2rb	.
.	.	16b/	.	16b/	16A\JJ)	.	16c#\JJ)	.	.	.	.	.
8BB/J	#	16b/	.	16b/	(>16B\LL	ſpi-	(>16d#X\LL	ſpi-	8f#\	ſpi-	.	.
.	.	16b/JJ	.	16b/JJ	16c#\JJ)	.	16e\JJ)	.	.	.	.	.
!	!	!	!	!	!	!	!LO:LB:g=original	!	!	!	!	!
8r	.	16b/LL	.	16b/LL	(>16B\LL	-ri-	8d#X\	-ri-	8f#\	-ri-	.	.
.	.	16b/	.	16b/	16A\JJ)	.	.	.	.	.	.	.
8BB/	#	16b/	.	16b/	16G#\	-tu-	16d#\	-tu-	16f#\	-tu-	.	.
.	.	16b/JJ	.	16b/JJ	16F#\	-i	16d#\	-i	16b\	-i	.	.
=28	=28	=28	=28	=28	=28	=28	=28	=28	=28	=28	=28	=28
8E\L	.	16b\LL	.	16b\LL	8E\	ſan-	8e\	ſan-	8g#\	ſan-	4rdd	.
.	.	16ee\	.	16ee\	.	.	.	.	.	.	.	.
8F#\	.	16ee\	.	16ee\	8E,<\	-cto	8e,<\	-cto	8g#,<\	-cto	.	.
.	.	16ee\JJ	.	16ee\JJ	.	.	.	.	.	.	.	.
8G#\	.	16ee\LL	.	16ee\LL	8E\	ſi-	8B\	ſi-	8g#\	ſi-	8ee\	ſi-
.	.	16ee\	.	16ee\	.	.	.	.	.	.	.	.
8E\J	.	16ee\	.	16ee\	8E\	-cut	8B\	-cut	8g#\	-cut	8ee\	-cut
.	.	16ee\JJ	.	16ee\JJ	.	.	.	.	.	.	.	.
8BB/L	.	16dd#X\LL	.	16dd#X\LL	8BB/	e-	8B\	e-	8f#\	e-	8dd#X\	e-
.	.	16ff#\	.	16ff#\	.	.	.	.	.	.	.	.
8C#/	.	16ff#\	.	16ff#\	8C#,</	-rat	8B\	-rat	8f#\	-rat	8ee\	-rat
.	.	16ff#\JJ	.	16ff#\JJ	.	.	.	.	.	.	.	.
8D#X/	.	16ff#\LL	.	16ff#\LL	8D/	in	8B\	in	8f#\	in	8ff#\	in
.	.	16ff#\	.	16ff#\	.	.	.	.	.	.	.	.
8BB/J	.	16ff#\	.	16ff#\	8AA/	prin-	8B\	prin-	8f#\	prin-	8dd#X\	prin-
.	.	16ff#\JJ	.	16ff#\JJ	.	.	.	.	.	.	.	.
!	!	!LO:LB:g=original	!	!	!	!	!	!	!	!	!LO:LB:g=original	!
=29	=29	=29	=29	=29	=29	=29	=29	=29	=29	=29	=29	=29
8E\L	.	16ee\LL	.	16ee\LL	8.E\	-ci-	8.B\	-ci-	8.g#\	-ci-	8.ee\	-ci-
.	.	16gg#\	.	16gg#\	.	.	.	.	.	.	.	.
8F#\	.	16gg#\	.	16gg#\	.	.	.	.	.	.	.	.
.	.	16gg#\JJ	.	16gg#\JJ	16F#\	-pi-	16B\	-pi-	16f#\	-pi-	16dd#X\	-pi-
8G#\	.	16gg#\LL	.	16gg#\LL	8G#\	-o	8B,<\	-o	8e\	-o	8ee\	-o
.	.	16gg#\	.	16gg#\	.	.	.	.	.	.	.	.
8E\J	.	16gg#\	.	16gg#\	8E\	et	8B\	et	8g#\	et	8ee\	et
.	.	16gg#\JJ	.	16gg#\JJ	.	.	.	.	.	.	.	.
!	!	!	!	!	!LO:LB:g=original	!	!	!	!	!	!	!
!LO:TX:a:t=P:mixed beam:problem	!	!	!	!	!	!	!	!	!	!	!	!
8A\L	.	16aa\LL	.	16aa\LL	8A\	nunc-	8c#\	nunc-	8e\	nunc-	8ee\	nunc-
.	.	16aa\	.	16aa\	.	.	.	.	.	.	.	.
8E\	.	16gg#\	.	16gg#\	8E\	-et	8B\	-et	8g#\	-et	8ee\	-et
.	.	16gg#\JJ	.	16gg#\JJ	.	.	.	.	.	.	.	.
!	!	!	!	!	!LO:TX:a:t=P:mixed beam:problem	!	!	!	!	!	!	!
8F#\	7	16aa\LL	.	16aa\LL	8F#\L	ſem-	(<8A/L	ſem-	4f#\	ſem-	(>8ee\L	ſem-
.	.	16ff#\	.	16ff#\	.	.	.	.	.	.	.	.
8BB/J	#	16ff#\	.	16ff#\	8BB/J	.	8B/J)	.	.	.	8dd#X\J)	.
.	.	16ff#\JJ	.	16ff#\JJ	.	.	.	.	.	.	.	.
!	!	!	!	!	!	!	!	!	!LO:LB:g=original	!	!	!
=30	=30	=30	=30	=30	=30	=30	=30	=30	=30	=30	=30	=30
8E\L	.	16ee\LL	.	16ee\LL	8E\	-per	4B\	-per	8g#,<\	-per	4ee,<\	-per
.	.	16bb\	.	16bb\	.	.	.	.	.	.	.	.
8F#\	.	16bb\	.	16bb\	8G#\	et	.	.	4g#\	et	.	.
.	.	16bb\JJ	.	16bb\JJ	.	.	.	.	.	.	.	.
8G#\	.	16bb\LL	.	16bb\LL	8E\	in	8B\	et	.	.	8ee\	et
.	.	16bb\	.	16bb\	.	.	.	.	.	.	.	.
8E\J	.	16bb\	.	16bb\	8A\	ſae-	8B\	in	8g#\	in	8ee\	in
.	.	16bb\JJ	.	16bb\JJ	.	.	.	.	.	.	.	.
8A\L	.	16aa\LL	.	16aa\LL	8A\	-cu-	8c#\	ſae-	8a\	ſae-	8cc#\	ſae-
.	.	16aa\	.	16aa\	.	.	.	.	.	.	.	.
8G#\	.	16aa\	.	16aa\	16A\	-la	16c#\	-cu-	16a\	-cu-	16cc#\	-cu-
.	.	16aa\JJ	.	16aa\JJ	16G#\	.	16e\	-la	16b\	-la	16b\	-la
!	!	!	!	!LO:LB:g=original	!	!	!LO:LB:g=original	!	!	!	!	!
8A\	.	16aa\LL	.	16aa\LL	8A\	ſae-	8e\	ſae-	8a\	ſae-	8cc#\	ſae-
.	.	16aa\	.	16aa\	.	.	.	.	.	.	.	.
8E\J	.	16bb\	.	16bb\	8E\	-cu-	8e\	-cu-	8g#\	-cu-	8b\	-cu-
.	.	16bb\JJ	.	16bb\JJ	.	.	.	.	.	.	.	.
=31	=31	=31	=31	=31	=31	=31	=31	=31	=31	=31	=31	=31
8F#\L	4	16ff#\LL	.	16ff#\LL	8F#\	-lo-	8c#\	-lo-	8a\	-lo-	8a\	-lo-
.	3	16aa\	.	16aa\	.	.	.	.	.	.	.	.
8E\	.	16aa\	.	16aa\	8E\	-r(um)	8e\	-rum	8g#\	-rum	8cc#,<\	-rum
.	.	16aa\JJ	.	16aa\JJ	.	.	.	.	.	.	.	.
8F#\	.	16aa\LL	.	16aa\LL	8F#\	ſae-	8c#\	ſae-	8a\	ſae-	8cc#\	ſae-
.	.	16aa\	.	16aa\	.	.	.	.	.	.	.	.
8C#\J	.	16aa\	.	16aa\	8C#/	-cu-	8c#\	-cu-	8a\	-cu-	8ee\	-cu-
.	.	16aa\JJ	.	16aa\JJ	.	.	.	.	.	.	.	.
!LO:LB:g=original	!	!	!	!	!	!	!	!	!	!	!	!
!LO:TX:a:t=P:mixed beam:problem	!	!	!	!	!	!	!	!	!	!	!	!
8D\L	5_ x	16aa\LL	.	16aa\LL	8D/	-lo-	8B\	-lo-	8a\	-lo-	8ff#\	-lo-
.	.	16aa\	.	16aa\	.	.	.	.	.	.	.	.
!	!	!	!	!	!	!	!	!	!	!	!LO:LB:g=original	!
8BB\	.	16bb\	.	16bb\	8BB/	-r(um)	8B\	-r(um)	8a\	-r(um)	8ff#\	-rum
.	.	16bb\JJ	.	16bb\JJ	.	.	.	.	.	.	.	.
!	!	!	!	!	!LO:TX:a:t=P:mixed beam:problem	!	!	!	!	!	!	!
8E\	5 4	16bb\LL	.	16bb\LL	8E\L	A-	4B\	A-	(>8a\L	A-	4ee\	A-
.	x 3	16bb\	.	16bb\	.	.	.	.	.	.	.	.
8EE/J	.	16bb\	.	16bb\	8EE/J	.	.	.	8g#\J)	.	.	.
.	.	16bb\JJ	.	16bb\JJ	.	.	.	.	.	.	.	.
=32	=32	=32	=32	=32	=32	=32	=32	=32	=32	=32	=32	=32
4AA/	.	16aa\LL	.	16aa\LL	8AA,</	-men	8c#\	-men	4a\	-men	8ee\	-men
.	.	16ee\	.	16ee\	.	.	.	.	.	.	.	.
.	.	16ee\	.	16ee\	16A\LL	A-	(>16c#\LL	A-	.	.	8rdd	.
.	.	16ee\JJ	.	16ee\JJ	16G#\JJ	.	16B\JJ)	.	.	.	.	.
8r	.	16ee\LL	.	16ee\LL	16A\LL	.	16c#\LL	.	8rd	.	8rb	.
.	.	16ee\	.	16ee\	16B\	.	16d\	.	.	.	.	.
8AA/	.	16ee\	.	16ee\	16A\	.	16c#\	.	8e\	a-	8ee\	A-
.	.	16ee\JJ	.	16ee\JJ	16B\JJ	.	16d\JJ	.	.	.	.	.
!	!	!	!	!	!	!	!	!	!	!	!LO:N:vis=8	!
4E\	.	16ee\LL	.	16ee\LL	8G#\	-men	8B\	-men	4g#\	-men	4ee\	-men
.	.	16ee\	.	16ee\	.	.	.	.	.	.	.	.
!	!	!	!	!	!LO:LB:g=original	!	!	!	!	!	!	!
.	.	16ee\	.	16ee\	(>16G#\LL	A-	16B\LL	a-	.	.	.	.
.	.	16ee\JJ	.	16ee\JJ	16F#\JJ)	.	16A\JJ	.	.	.	.	.
8r	.	16ee\LL	.	16ee\LL	16G#\LL	.	16B\LL	.	8rf	.	8rdd	.
.	.	16ee\	.	16ee\	16A\	.	16c#\	.	.	.	.	.
8E\	.	16ee\	.	16ee\	16F#\	.	16A\	.	8b\	a-	(>8dd\	a-
.	.	16ee\JJ	.	16ee\JJ	16G#\JJ	.	16B\JJ	.	.	.	.	.
!	!	!LO:LB:g=original	!	!	!	!	!	!	!	!	!	!
=33	=33	=33	=33	=33	=33	=33	=33	=33	=33	=33	=33	=33
!LO:TX:a:t=P:mixed beam:problem	!	!	!	!	!	!	!	!	!	!	!	!
8A\L	.	16ee\LL	.	16ee\LL	8A\	-men	8c#\	-men	8a\	-men	8ee\)	.
.	.	16ff#\	.	16ff#\	.	.	.	.	.	.	.	.
8D\	6 5	16ff#\	.	16ff#\	8D/	A-	8B\	.	8a\	A-	8ff#,<\	-men
.	.	16ff#\JJ	.	16ff#\JJ	.	.	.	.	.	.	.	.
!	!	!	!	!	!LO:TX:a:t=P:mixed beam:problem	!	!	!	!	!	!	!
8E\	4 x	16ee\LL	.	16ee\LL	(>8E\L	.	4B\	A-	(>8a\L	.	4ee\	a-
.	3 x	16gg#\	.	16bb\	.	.	.	.	.	.	.	.
8EE/J	.	16gg#\	.	16bb\	8EE/J)	.	.	.	8g#\J)	.	.	.
.	.	16gg#\JJ	.	16bb\JJ	.	.	.	.	.	.	.	.
!	!	!	!	!	!	!	!	!	!LO:LB:g=original	!	!	!
8AA/L	.	16ee\LL	.	16aa\LL	8AA/	-men	8c#\	-men	8a,<\	-men	8ee\	-men
.	.	16aa\	.	16aa\	.	.	.	.	.	.	.	.
8C#/	6 x	16aa\	.	16aa\	8C#/L	A-	8c#\L	A-	4a\	A-	8ee\L	A-
.	.	16aa\JJ	.	16aa\JJ	.	.	.	.	.	.	.	.
8D/	6 5	16ee\LL	.	16bb\LL	8D/	.	8B\	.	.	.	8ff#\	.
.	.	16bb\	.	16bb\	.	.	.	.	.	.	.	.
8E/J	.	16bb\	.	16bb\	8E/J	.	8e\J	.	8g#\	.	8ee\J	.
.	.	16bb\JJ	.	16bb\JJ	.	.	.	.	.	.	.	.
=34	=34	=34	=34	=34	=34	=34	=34	=34	=34	=34	=34	=34
!LO:TX:a:t=P:w źródle fermata bez kropki:problem	!	!	!	!	!	!	!	!	!	!	!	!
4AA;</	.	4aa\	.	4ccc#;;\	4AA/	-men	4c#\	-men	4a\	-men	4ee\	-men
4r	.	4rff	.	4rff	4r	.	4rB	.	4rf	.	4rdd	.
2r	.	2rdd	.	2rdd	2r	.	2rd	.	2rf	.	2rb	.
!	!	!	!	!	!	!	!	!	!LO:TX:a:Bi:t=Laetatus	!	!	!
!	!	!	!	!	!LO:TX:a:t=P:ozdobna kreska końcowa &colon;||&colon;:problem	!	!LO:TX:a:t=P:ozdobna kreska końcowa &colon;||&colon;:problem	!	!LO:TX:a:t=P:ozdobna kreska końcowa &colon;||&colon;:problem	!	!LO:TX:a:t=P:ozdobna kreska końcowa &colon;||&colon;:problem	!
!LO:TX:a:t=P:ozdobna kreska końcowa &colon;||&colon;:problem	!	!LO:TX:a:t=P:ozdobna kreska końcowa &colon;||&colon;:problem	!	!LO:TX:a:t=P:ozdobna kreska końcowa &colon;||&colon;:problem	!	!	!	!	!	!	!	!
==	==	==	==	==	==	==	==	==	==	==	==	==
*-	*-	*-	*-	*-	*-	*-	*-	*-	*-	*-	*-	*-
!!title: @{OTL};
!!!RDF**kern: > = above
!!!RDF**kern: < = below
!!!RDF**kern: i = editorial accidental
!!!EED: Wojciech Jakubiak-Danek
!!!EST: 2020-11-01
!!!URL-scan: http://bc.bdsandomierz.pl/dlibra/publication/1787/edition/1768/content
!!!ONB-nifc: UWAGA: części Psalmodii: Laudate Dominum, Laetatus, Nisi Dominus, Lauda Jerusalem
!!!ENC: Marcin Jachim
!!!END: 2020-05-05
